icons/1_Primary/Phabricator.svg

<svg width="1024" height="1024" viewBox="0 0 1024 1024" fill="none" xmlns="http://www.w3.org/2000/svg">
<g clip-path="url(#clip0_2_3120)">
<path d="M512 1024C794.77 1024 1024 794.77 1024 512C1024 229.23 794.77 0 512 0C229.23 0 0 229.23 0 512C0 794.77 229.23 1024 512 1024Z" fill="#728DBE"/>
<path d="M604.55 519.5L604.43 503.5C604.43 503.5 631.21 479.07 630.43 477.34L618.71 452.66C617.97 450.93 582.31 452.04 582.31 452.04L570.71 440.56C570.71 440.56 570.96 405.39 569.23 404.65L544.43 393.3C542.7 392.56 518.89 419.22 518.89 419.22L502.72 418.97C502.72 418.97 477.42 392.56 475.72 393.3L451 403.5C449.27 404.12 451.25 439.16 451.25 439.16L440.05 450.4C440.05 450.4 404.05 449.29 403.4 450.89L393.4 475.32C392.66 477.05 419.32 501.24 419.32 501.24L419.44 517.16C419.44 517.16 392.66 541.59 393.44 543.32L405.13 568C405.87 569.73 441.53 568.62 441.53 568.62L453.13 580.1C453.13 580.1 452.88 619.34 454.61 619.96L479.41 630.2C481.14 630.94 504.95 601.2 504.95 601.2L521.12 601.45C521.12 601.45 546.42 630.82 548.02 630.2L572.7 620.94C574.43 620.2 572.45 581.33 572.45 581.33L583.7 570.1C583.7 570.1 619.7 571.21 620.35 569.48L630.35 545.05C631.21 543.69 604.56 519.51 604.56 519.51L604.55 519.5ZM549.14 508.76C550 529.86 533.34 547.76 512 548.76C490.66 549.76 472.39 533.33 471.52 512.23C471.169 502.022 474.882 492.091 481.845 484.618C488.809 477.145 498.452 472.74 508.66 472.37C530 471.38 548.28 487.79 549.14 508.77V508.76ZM797.44 462L677.73 342.3L677.61 342.42C584.93 251.96 436.48 252.58 344.66 344.42C281.85 407.36 310.35 378.85 226.56 462.02C213.328 475.296 205.898 493.276 205.898 512.02C205.898 530.764 213.328 548.744 226.56 562.02C312.82 647.66 283.82 618.79 346.76 681.72L346.88 681.6C439.56 772.06 588.01 771.6 679.83 679.6C742.77 616.79 714.26 645.17 797.43 562C810.663 548.725 818.094 530.746 818.096 512.002C818.098 493.258 810.67 475.278 797.44 462ZM379.22 645C361.733 627.552 347.86 606.826 338.394 584.009C328.928 561.192 324.056 536.733 324.056 512.03C324.056 487.327 328.928 462.868 338.394 440.051C347.86 417.234 361.733 396.508 379.22 379.06C452.65 305.51 571.73 305.63 645.28 379.06C718.83 452.49 718.83 571.57 645.28 645.12C571.73 718.67 452.77 718.43 379.22 645Z" fill="white"/>
</g>
<defs>
<clipPath id="clip0_2_3120">
<rect width="1024" height="1024" fill="white"/>
</clipPath>
</defs>
</svg>

<svg width="1024" height="1024" fill="none" xmlns="http://www.w3.org/2000/svg"><g clip-path="url(#a)"><path d="M512 1024c282.77 0 512-229.23 512-512S794.77 0 512 0 0 229.23 0 512s229.23 512 512 512Z" fill="#728DBE"/><path d="m604.55 519.5-.12-16s26.78-24.43 26-26.16l-11.72-24.68c-.74-1.73-36.4-.62-36.4-.62l-11.6-11.48s.25-35.17-1.48-35.91l-24.8-11.35c-1.73-.74-25.54 25.92-25.54 25.92l-16.17-.25s-25.3-26.41-27-25.67L451 403.5c-1.73.62.25 35.66.25 35.66l-11.2 11.24s-36-1.11-36.65.49l-10 24.43c-.74 1.73 25.92 25.92 25.92 25.92l.12 15.92s-26.78 24.43-26 26.16L405.13 568c.74 1.73 36.4.62 36.4.62l11.6 11.48s-.25 39.24 1.48 39.86l24.8 10.24c1.73.74 25.54-29 25.54-29l16.17.25s25.3 29.37 26.9 28.75l24.68-9.26c1.73-.74-.25-39.61-.25-39.61l11.25-11.23s36 1.11 36.65-.62l10-24.43c.86-1.36-25.79-25.54-25.79-25.54l-.01-.01Zm-55.41-10.74c.86 21.1-15.8 39-37.14 40s-39.61-15.43-40.48-36.53a38.561 38.561 0 0 1 37.14-39.86c21.34-.99 39.62 15.42 40.48 36.4v-.01ZM797.44 462 677.73 342.3l-.12.12c-92.68-90.46-241.13-89.84-332.95 2-62.81 62.94-34.31 34.43-118.1 117.6a70.829 70.829 0 0 0 0 100c86.26 85.64 57.26 56.77 120.2 119.7l.12-.12c92.68 90.46 241.13 90 332.95-2 62.94-62.81 34.43-34.43 117.6-117.6a70.83 70.83 0 0 0 .01-100ZM379.22 645a187.838 187.838 0 0 1 0-265.94c73.43-73.55 192.51-73.43 266.06 0 73.55 73.43 73.55 192.51 0 266.06-73.55 73.55-192.51 73.31-266.06-.12Z" fill="#fff"/></g><defs><clipPath id="a"><path fill="#fff" d="M0 0h1024v1024H0z"/></clipPath></defs></svg>
